neru-dark-classic/22x22/extra/clementine/as_disabled.svg

<?xml version="1.0" encoding="UTF-8" standalone="no"?>
<svg
   xmlns:dc="http://purl.org/dc/elements/1.1/"
   xmlns:cc="http://creativecommons.org/ns#"
   xmlns:rdf="http://www.w3.org/1999/02/22-rdf-syntax-ns#"
   xmlns:svg="http://www.w3.org/2000/svg"
   xmlns="http://www.w3.org/2000/svg"
   xmlns:sodipodi="http://sodipodi.sourceforge.net/DTD/sodipodi-0.dtd"
   xmlns:inkscape="http://www.inkscape.org/namespaces/inkscape"
   height="22"
   width="22"
   version="1"
   id="svg6"
   sodipodi:docname="as_disabled.svg"
   inkscape:version="0.92.1 r">
  <metadata
     id="metadata10">
    <rdf:RDF>
      <cc:Work
         rdf:about="">
        <dc:format>image/svg+xml</dc:format>
        <dc:type
           rdf:resource="http://purl.org/dc/dcmitype/StillImage" />
      </cc:Work>
    </rdf:RDF>
  </metadata>
  <sodipodi:namedview
     pagecolor="#ffffff"
     bordercolor="#666666"
     borderopacity="1"
     objecttolerance="10"
     gridtolerance="10"
     guidetolerance="10"
     inkscape:pageopacity="0"
     inkscape:pageshadow="2"
     inkscape:window-width="749"
     inkscape:window-height="480"
     id="namedview8"
     showgrid="false"
     inkscape:zoom="10.727273"
     inkscape:cx="11"
     inkscape:cy="11"
     inkscape:window-x="0"
     inkscape:window-y="0"
     inkscape:window-maximized="0"
     inkscape:current-layer="svg6" />
  <defs
     id="defs9">
    <style
       type="text/css"
       id="current-color-scheme">
   .ColorScheme-Text { color:#d3dae3; } .ColorScheme-Highlight { color:#5294e2; }
  </style>
  </defs>
  <path
     d="m 11,4 c -3.878,0 -7,3.122 -7,7 0,3.878 3.122,7 7,7 3.878,0 7,-3.122 7,-7 C 18,7.122 14.878,4 11,4 Z M 9.4961,8.002 c 0.5381,0.0186 1.0732,0.2241 1.5019,0.6367 0.3306,0.3176 0.4769,0.5891 0.9747,1.791 0.5195,1.2569 0.6148,1.4535 0.7832,1.6211 0.1803,0.1782 0.3481,0.2383 0.6681,0.2383 0.525,0 0.9,-0.3308 0.9,-0.7911 0,-0.3895 -0.134,-0.5137 -0.822,-0.7617 -1.0472,-0.3836 -1.3855,-0.7295 -1.3868,-1.4258 0,-0.3714 0.0927,-0.6202 0.3282,-0.8769 0.3379,-0.3664 0.9196,-0.4867 1.4356,-0.3047 0.22,0.0794 0.682,0.4928 0.682,0.6113 0,0.0576 -0.268,0.2338 -0.416,0.2754 C 14.066,9.0363 14,9.0097 13.91,8.9219 13.727,8.7437 13.604,8.6875 13.385,8.6875 c -0.378,0 -0.6135,0.2308 -0.6135,0.6035 0,0.3715 0.1502,0.4968 0.8945,0.752 1.026,0.3517 1.328,0.6712 1.334,1.4062 0.006,0.635 -0.276,1.0922 -0.836,1.3633 -0.255,0.1223 -0.342,0.1387 -0.758,0.1387 C 12.8122,12.9499 12.5459,12.8382 12.2129,12.457 11.9891,12.2007 11.7625,11.7194 11.0352,9.9629 10.7335,9.235 10.345,8.8787 9.6992,8.7383 9.372,8.6673 8.9162,8.7337 8.6191,8.8926 8.3295,9.0464 8.0062,9.3936 7.8535,9.7109 7.7273,9.9686 7.7168,10.0402 7.7168,10.4883 c 0,0.4274 0.0155,0.5292 0.1211,0.7637 0.1601,0.3579 0.476,0.687 0.8223,0.8652 0.2502,0.1282 0.3273,0.1445 0.7265,0.1445 0.3835,0 0.4823,-0.0179 0.711,-0.1289 0.261,-0.1294 0.6127,-0.4476 0.7558,-0.6855 l 0.0742,-0.1231 0.1465,0.3418 c 0.0819,0.1882 0.1485,0.3646 0.1485,0.3965 0,0.0941 -0.3326,0.4021 -0.6368,0.5937 -0.4617,0.2896 -0.9922,0.3968 -1.5586,0.3184 v 0.002 C 8.8673,12.9547 8.5825,12.8604 8.3926,12.7676 7.1552,12.1654 6.6483,10.6486 7.2578,9.3711 7.693,8.4581 8.5992,7.9708 9.4961,8.002 Z"
     style="color:#d3dae3;opacity:0.3;fill:currentColor;fill-opacity:1;enable-background:new"
     class="ColorScheme-Text"
     id="path4"
     inkscape:connector-curvature="0" />
</svg>

<svg xmlns="http://www.w3.org/2000/svg" height="22" width="22" version="1" id="svg6"><defs id="defs9"><style type="text/css" id="current-color-scheme"></style></defs><path d="M11 4c-3.878 0-7 3.122-7 7s3.122 7 7 7 7-3.122 7-7-3.122-7-7-7zM9.496 8.002a2.263 2.263 0 0 1 1.502.637c.33.317.477.589.975 1.79.52 1.258.615 1.454.783 1.622.18.178.348.238.668.238.525 0 .9-.33.9-.791 0-.39-.134-.514-.822-.762-1.047-.383-1.385-.73-1.387-1.425 0-.372.093-.62.328-.877.338-.367.92-.487 1.436-.305.22.08.682.493.682.611 0 .058-.268.234-.416.276-.079.02-.145-.006-.235-.094-.183-.178-.306-.235-.525-.235-.378 0-.614.231-.614.604 0 .371.15.497.895.752 1.026.352 1.328.671 1.334 1.406.006.635-.276 1.092-.836 1.364-.255.122-.342.138-.758.138-.594-.001-.86-.113-1.193-.494-.224-.256-.45-.738-1.178-2.494-.302-.728-.69-1.084-1.336-1.225a1.755 1.755 0 0 0-1.08.155c-.29.153-.613.5-.765.818-.127.258-.137.33-.137.777 0 .428.015.53.12.764.161.358.477.687.823.865.25.128.327.145.727.145.383 0 .482-.018.71-.13.262-.129.613-.447.757-.685l.074-.123.146.342c.082.188.149.365.149.397 0 .094-.333.402-.637.593-.462.29-.992.397-1.559.319v.002a2.57 2.57 0 0 1-.634-.21c-1.238-.602-1.745-2.118-1.135-3.396a2.388 2.388 0 0 1 2.238-1.369z" id="path4" color="#d3dae3" opacity=".3" fill="currentColor" fill-opacity="1"/></svg>
